X:250
T:Hand Me Down the Tackle
T:Pure Drop, The
T:Reidy Johnson's
R:reel
D:Frankie Gavin: Frankie Goes to Town
Z:id:hn-reel-152
M:C|
K:D
dD~D2 FDFA|dfaf gfec|dD~D2 FDFA|GFEF GABc|
dD~D2 FDFA|dfaf gfeg|fdec dBAF|GFEF GABc:|
d2fd Adfd|d2fd BABc|d2fd Adfd|BGEF GABc|
d2fd Adfd|d2fd cdeg|fdec dAFA|GFEF GABc|
d2fd Adfd|d2fd BABc|dcde fdAF|GEFD ~E3z|
~a3b afdf|gfef gbag|fdec dBAF|GFEF GABc||
